dist/images/ico/ico_sprites_pagination.svg

<svg width="108" height="23" viewBox="0 0 108 23" fill="none" xmlns="http://www.w3.org/2000/svg">
<g opacity="0.5">
<path d="M11.7335 16.2369C12.0888 15.8877 12.0888 15.3235 11.7335 14.9742L8.19818 11.4994L11.7335 8.02468C12.0888 7.67542 12.0888 7.11122 11.7335 6.76195C11.3781 6.41268 10.8041 6.41268 10.4487 6.76195L6.26651 10.8725C5.91116 11.2218 5.91116 11.786 6.26651 12.1353L10.4487 16.2459C10.795 16.5862 11.3781 16.5862 11.7335 16.2369Z" fill="#A4A4A4"/>
<path d="M17.7335 16.2369C18.0888 15.8877 18.0888 15.3235 17.7335 14.9742L14.1982 11.4994L17.7335 8.02468C18.0888 7.67542 18.0888 7.11122 17.7335 6.76195C17.3781 6.41268 16.8041 6.41268 16.4487 6.76195L12.2665 10.8725C11.9112 11.2218 11.9112 11.786 12.2665 12.1353L16.4487 16.2459C16.795 16.5862 17.3781 16.5862 17.7335 16.2369Z" fill="#A4A4A4"/>
</g>
<path opacity="0.5" d="M42.7335 16.2369C43.0888 15.8877 43.0888 15.3235 42.7335 14.9742L39.1982 11.4994L42.7335 8.02468C43.0888 7.67542 43.0888 7.11122 42.7335 6.76195C42.3781 6.41269 41.8041 6.41269 41.4487 6.76195L37.2665 10.8725C36.9112 11.2218 36.9112 11.786 37.2665 12.1353L41.4487 16.2459C41.795 16.5862 42.3781 16.5862 42.7335 16.2369Z" fill="#A4A4A4"/>
<path opacity="0.5" d="M65.2665 6.76308C64.9112 7.11235 64.9112 7.67655 65.2665 8.02581L68.8018 11.5006L65.2665 14.9753C64.9112 15.3246 64.9112 15.8888 65.2665 16.238C65.6219 16.5873 66.1959 16.5873 66.5513 16.238L70.7335 12.1275C71.0888 11.7782 71.0888 11.214 70.7335 10.8647L66.5513 6.75412C66.205 6.41381 65.6219 6.41381 65.2665 6.76308Z" fill="#A4A4A4"/>
<g opacity="0.5">
<path d="M96.2665 6.76302C95.9112 7.11229 95.9112 7.67649 96.2665 8.02575L99.8018 11.5005L96.2665 14.9753C95.9112 15.3245 95.9112 15.8887 96.2665 16.238C96.6219 16.5873 97.1959 16.5873 97.5513 16.238L101.733 12.1274C102.089 11.7781 102.089 11.2139 101.733 10.8647L97.5513 6.75406C97.205 6.41375 96.6219 6.41375 96.2665 6.76302Z" fill="#A4A4A4"/>
<path d="M90.2665 6.76302C89.9112 7.11229 89.9112 7.67648 90.2665 8.02575L93.8018 11.5005L90.2665 14.9753C89.9112 15.3245 89.9112 15.8887 90.2665 16.238C90.6219 16.5873 91.1959 16.5873 91.5513 16.238L95.7335 12.1274C96.0888 11.7781 96.0888 11.2139 95.7335 10.8647L91.5513 6.75406C91.205 6.41375 90.6219 6.41375 90.2665 6.76302Z" fill="#A4A4A4"/>
</g>
</svg>

<svg width="108" height="23" fill="none" xmlns="http://www.w3.org/2000/svg"><g opacity=".5" fill="#A4A4A4"><path d="M11.733 16.237a.881.881 0 000-1.263L8.198 11.5l3.535-3.474a.881.881 0 000-1.263.919.919 0 00-1.284 0l-4.182 4.11a.881.881 0 000 1.263l4.182 4.11a.926.926 0 001.284-.008z"/><path d="M17.733 16.237a.881.881 0 000-1.263L14.198 11.5l3.535-3.474a.881.881 0 000-1.263.919.919 0 00-1.284 0l-4.183 4.11a.881.881 0 000 1.263l4.183 4.11a.926.926 0 001.284-.008z"/></g><path opacity=".5" d="M42.733 16.237a.881.881 0 000-1.263L39.198 11.5l3.535-3.474a.881.881 0 000-1.263.919.919 0 00-1.284 0l-4.182 4.11a.881.881 0 000 1.263l4.182 4.11a.927.927 0 001.285-.008zm22.533-9.474a.881.881 0 000 1.263l3.536 3.475-3.536 3.474a.881.881 0 000 1.263c.356.35.93.35 1.285 0l4.183-4.11a.881.881 0 000-1.263l-4.183-4.11a.927.927 0 00-1.285.008z" fill="#A4A4A4"/><g opacity=".5" fill="#A4A4A4"><path d="M96.266 6.763a.881.881 0 000 1.263l3.536 3.475-3.536 3.474a.881.881 0 000 1.263c.356.35.93.35 1.285 0l4.182-4.11a.88.88 0 000-1.263l-4.182-4.11a.927.927 0 00-1.285.008z"/><path d="M90.266 6.763a.881.881 0 000 1.263l3.536 3.475-3.536 3.474a.881.881 0 000 1.263c.356.35.93.35 1.285 0l4.183-4.11a.881.881 0 000-1.263l-4.183-4.11a.927.927 0 00-1.285.008z"/></g></svg>
